X: 14
T:Little Stack of Wheat
R:Hornpipe
Z:Added by Alf Warnock
M:4/4
L:1/8
K:G
GA|:BGAG EGDE|G2GF GBAG|(3EFG AB cBAG|EAAG A2AB|
cece BdBd|ABAG EGDG|BGAG EGDE|[1 G2GF G2GA:|[2 G2GF G2 (3ABc||
d2de dBGA|B2e2 e2ef|gfed BABd|(3efg (3fga g2ef|
gbgf efed|BGAG EGDG|BGAG EGDE|[1 G2GF G2 (3ABc:|[2 G2GF G2z|]

